!!!COM: Kittel, Johann Christian
!!!CDT: 1732/02/18-1809/04/17
!!!OPR: 24 Choräle mit acht verschiedenen Bässen
!!!ONM: 6
!!!OTL@@DE: Jesus, meine Zuversicht
**kern	**fb	**kern	**fb	**kern	**fb	**kern	**fb	**kern	**fb	**kern	**fb	**kern	**fb	**kern	**fb	**kern
*	*slash	*	*slash	*	*slash	*	*slash	*	*slash	*	*slash	*	*slash	*	*slash	*
*	*above	*	*above	*	*above	*	*above	*	*above	*	*above	*	*above	*	*above	*
*	*	*	*	*I"6	*	*I"5	*	*I"4	*	*I"3	*	*I"2	*	*I"1	*	*I"c.f.
*I"8	*	*I"7	*	*I'6	*	*I'5	*	*I'4	*	*I'3	*	*I'2	*	*I'1	*	*I'c.f.
*I'8	*	*I'7	*	*clefF4	*	*clefF4	*	*clefF4	*	*clefF4	*	*clefF4	*	*clefF4	*	*clefG2
*k[]	*	*k[]	*	*k[]	*	*k[]	*	*k[]	*	*k[]	*	*k[]	*	*k[]	*	*k[]
*M4/4	*	*M4/4	*	*M4/4	*	*M4/4	*	*M4/4	*	*M4/4	*	*M4/4	*	*M4/4	*	*M4/4
*met(c)	*	*met(c)	*	*met(c)	*	*met(c)	*	*met(c)	*	*met(c)	*	*met(c)	*	*met(c)	*	*met(c)
*MM180	*	*MM180	*	*MM180	*	*MM180	*	*MM180	*	*MM180	*	*MM180	*	*MM180	*	*MM180
=1	=1	=1	=1	=1	=1	=1	=1	=1	=1	=1	=1	=1	=1	=1	=1	=1
*C:	*	*C:	*	*C:	*	*C:	*	*C:	*	*C:	*	*C:	*	*C:	*	*C:
[1C	5 3	2BB	6	1C	.	2.C	.	2.C	.	2.C	.	2.C	.	1C	.	2g
.	3 7-	[2C	3 1	.	.	.	x_	.	x_	.	.	.	x_	.	.	2e
.	.	.	.	.	.	4BB	X	4BB-	X	4BB-	4 2	4BB	X	.	.	.
=2.	=2.	=2.	=2.	=2.	=2.	=2.	=2.	=2.	=2.	=2.	=2.	=2.	=2.	=2.	=2.	=2.
[1C]	6 4	2C]	6 4	2F	.	2AA	#6|	2AA	6	2AA	6	2AA	.	2F	.	2a
*	*	*	*	*a:	*	*	*	*	*	*	*	*a:	*	*	*	*
.	7 6- 4	2D	6	2GG#	7	2GG	.	2AA-	4 2n	2GG	.	2GG#	6	2D	6	2b
=3.	=3.	=3.	=3.	=3.	=3.	=3.	=3.	=3.	=3.	=3.	=3.	=3.	=3.	=3.	=3.	=3.
*	*	*	*	*	*	*G:	*	*	*	*	*	*	*	*	*	*
2C]	8 n	2E	6	2AA	3 5	2C	6	2GG	6 4	2E	6	2AA	.	(4C	.	2cc
.	.	.	.	.	.	.	5	.	.	.	.	.	.	4BB)	.	.
*G:	*	*	*	*C:	*	*	*	*	*	*	*	*G:	*	*	*	*
2D	7 #	2F#	6 5	2AA-	#6|	2D	7 #	2FF#	7- 5	2F#	6 5	2D	7 #	2AA	#6|	2cc
=4.	=4.	=4.	=4.	=4.	=4.	=4.	=4.	=4.	=4.	=4.	=4.	=4.	=4.	=4.	=4.	=4.
1GG;	.	1G;	9	1GGnX;	n	1GG;	.	1GG;	9	1G;	9	1GGnX;	.	1GG;	.	1b;
.	.	.	8	.	.	.	.	.	8	.	8	.	.	.	.	.
=5	=5	=5	=5	=5	=5	=5	=5	=5	=5	=5	=5	=5	=5	=5	=5	=5
!LO:N:vis=2	!	!LO:N:vis=2	!	!LO:N:vis=2	!	!LO:N:vis=2	!	!LO:N:vis=2	!	!LO:N:vis=2	!	!LO:N:vis=2	!	!LO:N:vis=2	!	!LO:N:vis=2
1r	.	1r	.	1r	.	1r	.	1r	.	1r	.	1r	.	1r	.	1r
=6.	=6.	=6.	=6.	=6.	=6.	=6.	=6.	=6.	=6.	=6.	=6.	=6.	=6.	=6.	=6.	=6.
*C:	*	*	*	*C:	*	*C:	*	*	*	*	*	*C:	*	*	*	*
!	!	!	!	!	!	!	!	!	!	!	!	!	!	!	!	!LO:N:vis=2
2D	.	2C	6	2F	.	2D	5	2D	5	2FnX	.	2D	5	2FnX	.	4a
.	.	.	.	.	.	.	6	.	6	.	.	.	6	.	.	4bN/
2AA	5	2AA	.	2E	6	2AA	6	2AA	5	(4E	6	2C	.	2E	6	2cc
.	6	.	.	.	.	.	5	.	6	4F)	.	.	.	.	.	.
=7.	=7.	=7.	=7.	=7.	=7.	=7.	=7.	=7.	=7.	=7.	=7.	=7.	=7.	=7.	=7.	=7.
*	*	*d:	*	*	*	*	*	*	*	*	*	*	*	*	*	*
!	!	!	!	!	!	!	!	!	!	!	!	!	!	!	!	!LO:N:vis=2
2BB	6	2BB	6	2D	6_ 4	2BB	6	2BB	6	2G	8	2BB	6	2BB	6	4g
.	5	.	.	.	X 3	.	5	.	.	.	7	.	.	.	.	4fN
(4C	.	2C#	6	2.C	8	(4C	.	2C	.	2A	.	2C	.	2C	.	2e
4BB-)	.	.	.	.	7-	4BB-)	.	.	.	.	.	.	.	.	.	.
=8.	=8.	=8.	=8.	=8.	=8.	=8.	=8.	=8.	=8.	=8.	=8.	=8.	=8.	=8.	=8.	=8.
(4AA	6	2D	5	.	6 4	(4AA	6_	(4AA	6	2D	7	2AA	6	2D	5	2f
4FF)	.	.	6	4D	6n	4AA-)	X	4BB)	.	.	6	.	.	.	6	.
*	*	*C:	*	*	*	*	*	*	*	*	*	*	*	*	*	*
2C	.	2E	6	(4E	6	(4GG	6_ 4_	2C	.	(4E	6	2GG	6 4	2E	6	2e
.	.	.	.	4F)	.	4FF#)	X X	.	.	4C)	.	.	.	.	.	.
=9.	=9.	=9.	=9.	=9.	=9.	=9.	=9.	=9.	=9.	=9.	=9.	=9.	=9.	=9.	=9.	=9.
1GG	4 8_	2FnX	6 5	1G	4 8_	1GG	4 8_	2FF	6 5	1GG	4 8_	2FF	6 5	2F	6 5	1d
.	3 x_	2G	8	.	3 x_	.	3 x_	2GG	8	.	3 x_	2GG	8	2G	8	.
.	X 7	.	7	.	X 7	.	X 7	.	7	.	X 7	.	7	.	7	.
=10.	=10.	=10.	=10.	=10.	=10.	=10.	=10.	=10.	=10.	=10.	=10.	=10.	=10.	=10.	=10.	=10.
1C;	8 3	1CnX;	8 3	1C;	8 3	1CC;	8 3	1CC;	8 3	1C;	8 3	1CC;	8 3	1C;	8 3	1c;
=11:||	=11:||	=11:||	=11:||	=11:||	=11:||	=11:||	=11:||	=11:||	=11:||	=11:||	=11:||	=11:||	=11:||	=11:||	=11:||	=11:||
*a:	*	*a:	*	*a:	*	*a:	*	*	*	*	*	*a:	*	*	*	*
2AA	.	2D	#4| 2	1E	1 #	[1E	8 #	2C	.	2AA	.	1C	3 5	2AA	.	2e
*	*	*	*	*	*	*	*	*a:	*	*a:	*	*	*	*a:	*	*
2D	7 #	2C	#4| 3	.	#2| 1 4	.	#2| #7| 4	2AA	#6|	1D	# 5	.	#4| 2	(4D	#	2f#
.	.	.	.	.	.	.	.	.	.	.	.	.	.	4C)	.	.
=12.	=12.	=12.	=12.	=12.	=12.	=12.	=12.	=12.	=12.	=12.	=12.	=12.	=12.	=12.	=12.	=12.
2E	# 7	2BB	#6| 4 3	2D	#4| 2	2E]	# 8	2E	#	.	#4| 2	2BB	#6|	2BB	#6|	2g#
.	.	.	.	.	.	.	X 7	.	.	.	.	.	.	.	.	.
2F	3 5	2AA	n	2C	6	(4F	.	2FnX	3 5	2C	6	2AA	.	2AA	.	2a
.	.	.	.	.	.	4E)	.	.	.	.	.	.	.	.	.	.
=13.	=13.	=13.	=13.	=13.	=13.	=13.	=13.	=13.	=13.	=13.	=13.	=13.	=13.	=13.	=13.	=13.
2D	6 5	2E	4_ 5	2BB	7 4	(4D	5 3	2D	6 5	2BB	7	2F	#6|	2D	8	2a
.	.	.	X 6	.	.	4C)	.	.	.	.	.	.	.	.	7	.
2E	# 8	2EE	# 7	2E	# 7	(4BB	#6|_ 4_ 3_	2E	# 8	2E	# 8	2E	# 8	2E	# 8	2g#
.	X 7	.	.	.	.	4E)	X X X	.	X 7	.	X 7	.	X 7	.	X 7	.
=14.	=14.	=14.	=14.	=14.	=14.	=14.	=14.	=14.	=14.	=14.	=14.	=14.	=14.	=14.	=14.	=14.
1AA;	n	1AA;	n	1AA;	.	1AA;	4	1AA;	n	1AA;	n	1AA;	n	1AA;	n	1a;
.	.	.	.	.	.	.	n	.	.	.	.	.	.	.	.	.
=15	=15	=15	=15	=15	=15	=15	=15	=15	=15	=15	=15	=15	=15	=15	=15	=15
*C:	*	*C:	*	*	*	*C:	*	*C:	*	*C:	*	*C:	*	*C:	*	*
2D	6 4 3	2D	6 4 3	1E	5 #	2GG	.	2A-	4 #2|	2G	7	1G	5 3	2G	.	2b
2C	.	2E	6	.	6 4	2AA	7	2G	6 4	2A	7	.	6 4	2E	6	2cc
=16.	=16.	=16.	=16.	=16.	=16.	=16.	=16.	=16.	=16.	=16.	=16.	=16.	=16.	=16.	=16.	=16.
*	*	*	*	*C:	*	*	*	*	*	*	*	*	*	*	*	*
2BB	6	2F	6 5	2D	6	2BB	6 5	2F	4 2	2B	6	2F	4 2	2D	6	2dd
.	.	.	X 4	.	.	.	.	.	.	.	.	.	.	.	.	.
2C	.	(4E	6	[2C	.	2C	.	(4E	6	2c	.	2E	6	2C	.	2ee
.	.	4F)	.	.	.	.	.	4C)	.	.	.	.	.	.	.	.
=17.	=17.	=17.	=17.	=17.	=17.	=17.	=17.	=17.	=17.	=17.	=17.	=17.	=17.	=17.	=17.	=17.
2F	6 5	2G	4 8_	2C]	4 2	2FF	6	2G	4 8_	2F	6 5	2F	6 5	2G	4 8_	2dd
(4G	-	2GG	3 x_	[2BB-	6	2GG	8	2GG	3 x_	2G	8	2G	8	2GG	3 x_	2dd
4F)	.	.	X 7	.	5	.	7	.	X 7	.	7	.	7	.	X 7	.
=18.	=18.	=18.	=18.	=18.	=18.	=18.	=18.	=18.	=18.	=18.	=18.	=18.	=18.	=18.	=18.	=18.
4E	6 5-	1C;	8 3	4BB-]	4 2	1CC;	8 3	1C;	8 3	1C;	8 3	1C;	8 3	1C;	8 3	1cc;
4F	5 3	.	.	(8AAL	6	.	.	.	.	.	.	.	.	.	.	.
.	.	.	.	8FFJ)	.	.	.	.	.	.	.	.	.	.	.	.
1C;	6 4	.	.	2C;	6 4	.	.	.	.	.	.	.	.	.	.	.
.	.	.	.	.	5 3	.	.	.	.	.	.	.	.	.	.	.
=19.	=19.	=19.	=19.	=19.	=19.	=19.	=19.	=19.	=19.	=19.	=19.	=19.	=19.	=19.	=19.	=19.
.	5 3	1ryy	.	1ryy	.	1ryy	.	1ryy	.	1ryy	.	1ryy	.	1ryy	.	1ryy
2ryy	.	.	.	.	.	.	.	.	.	.	.	.	.	.	.	.
==	==	==	==	==	==	==	==	==	==	==	==	==	==	==	==	==
*-	*-	*-	*-	*-	*-	*-	*-	*-	*-	*-	*-	*-	*-	*-	*-	*-
!!!RDF**kern: N = cue size
!!!AGN: chorale
!!!EED: Wolfgang Drescher
!!!END: 2023/05/11
!!!ENC: Wolfgang Drescher
!!!END: 2023/05/11
!!!title: @{ONM}. @{OTL@@DE}